!!!OTL: Christi Geburt (3-3), S. 17
!!!id: P0974
**kern
*clefG2
*k[b-]
*F:
{8f
8g
=1
4a
4a
8g
16g
16g
=2
2f}
=3
{4cc
=4
4dd
4cc
8cc
8b-
=5
2a}
=6
{4cc
=7
4.dd
8ee
8ff
8dd
=8
4.cc
8dd}
=9
{8cc
8b-
=10
8.a
16a
4a
4g
=11
4.a
8b-}
=12
{8a
8g
=13
4f
4f
4cc
=14
4ee
4cc}
=15
{8cc
8b-
=16
4a
4a
8g
8g
=17
2f}
==
*-
!!!minrhy: 16
!!!meters: 3/4 ]  ZZ[6
!!!cut: Christi Geburt (3-3), S. 17
!!!reg: Lothringen
!!!trd: PINCK, Louis: Verklingende Weisen, Bd3, Metz 1933
!!!rhy1: X_X_  X__X__X_XX  X___
!!!rhy2: X__  X__X__X_X_  X___
!!!key: P0974  16  F 3/4 ]  ZZ[6
!!!mod: HEPTATONIK IONISCH]  AMBITUS[8
!!!kad: 136451
!!!akz: 31_63_65_33_17_31_
!!!fot: 'a__b__c__d__e__aw_
!!!for: 'a__b__c__d__e__bv_
!!!fok: '^__\__^a_Vd_Sa_\__
!! PHRAS[AUFTAKTIG]
!!!fkt: yyy
!! LOTH VKL
!! PR[20] 2K[0] 2G[28] 3K[3] 3G[0] 4A[8] 4Ü[0] 5A[0] 6K[0] 6G[0]
!! 7K[0] 7G[0] 8A[0] MEHR[0] SI[38] ABS[40] SR[28] SP[10]
!! ST[12] 2k[8] 2g[25] 3k[3] 3g[8] 4d[0] 4ü[0] 5d[0] 6k[0] 6g[0]
!! 7k[0] 7g[0] 8d[0] mehr[0] si[43] dm[-5] sr[33] sp[10]
!! 1F[21] 2F[66] 3F[13] 4F[0] LF[0] 2P[0] 3P[0] 4P[0] TRI[0] DF[3] AB[47]
!! TF[0] U3K[0] U3[0] U4[0] U4Ü[0] U5[0] U6K[0] U6[0] U7K[12] U7[0]
!! N1[10] N2K[0] N2[15] N3K[27] N3[0] N4[22] N4Ü[0] N5[15] N6K[0] N6[0]
!!!n7k: 0] N7[0] O1[0] O2K[0] O2[0] O3K[0] O3[0] HÖ[0
